Origami/64x64/apps/zeal.svg

<svg xmlns="http://www.w3.org/2000/svg" width="64" height="64" version="1">
 <path style="opacity:0.2" d="M 11.035156,5 C 9.3533702,5 8,6.2495812 8,7.8007812 L 8,58.199218 C 8,59.750416 9.3533702,61 11.035156,61 L 18,61 53,61 c 1.662,0 3,-1.249584 3,-2.800782 L 56,7.8007812 C 56,6.2495812 54.662,5 53,5 L 31.96875,5 18,5 11.035156,5 Z"/>
 <path style="fill:#4f4f4f" d="M 11.035714,4.0000002 C 9.3539284,4.0000002 8,5.2488002 8,6.8000002 L 8,57.200002 C 8,58.7512 9.3539284,60 11.035714,60 L 18,60 18,4.0000002 Z"/>
 <path style="fill:#c4411a" d="M 18,4.0000002 18,60 53,60 c 1.662,0 3,-1.2488 3,-2.799998 L 56,6.8000002 c 0,-1.5512 -1.338,-2.8 -3,-2.8 l -21.0315,0 z"/>
 <path style="opacity:0.2;fill:none;stroke:#000000;stroke-width:3.99554634;stroke-linecap:round;stroke-linejoin:round" d="m 26.026227,18.997573 21.947547,0 -21.947547,28.004454 21.947547,0"/>
 <path style="fill:none;stroke:#ffffff;stroke-width:3.99554634;stroke-linecap:round;stroke-linejoin:round" d="m 26.026227,17.997773 21.947547,0 -21.947547,28.004454 21.947547,0"/>
 <path style="opacity:0.1;fill:#ffffff" d="M 11.035156,4 C 9.3533704,4 8,5.2493244 8,6.8002055 L 8,7.8 C 8,6.2491189 9.3533704,4.9997945 11.035156,4.9997945 l 6.964844,0 13.96875,0 21.03125,0 c 1.662,0 3,1.2493243 3,2.8002055 L 56,6.8002055 C 56,5.2493245 54.662,4 53,4 L 31.96875,4 18,4 11.035156,4 Z"/>
</svg>

<svg width="64" height="64" version="1" xmlns="http://www.w3.org/2000/svg">
 <path d="M 11.035156,5 C 9.3533702,5 8,6.2495812 8,7.8007812 L 8,58.199218 C 8,59.750416 9.3533702,61 11.035156,61 L 18,61 53,61 c 1.662,0 3,-1.249584 3,-2.800782 L 56,7.8007812 C 56,6.2495812 54.662,5 53,5 L 31.96875,5 18,5 11.035156,5 Z" style="opacity:.2"/>
 <path d="m11.035714 4.0000002c-1.6817856 0-3.035714 1.2488-3.035714 2.8v50.400002c0 1.551198 1.3539284 2.799998 3.035714 2.799998h6.964286v-56z" style="fill:#4f4f4f"/>
 <path d="m18 4.0000002v56h35c1.662 0 3-1.2488 3-2.799998v-50.400002c0-1.5512-1.338-2.8-3-2.8h-21.0315z" style="fill:#c4411a"/>
 <path d="m26.026227 18.997573h21.947547l-21.947547 28.004454h21.947547" style="fill:none;opacity:.2;stroke-linecap:round;stroke-linejoin:round;stroke-width:3.9955463;stroke:#000000"/>
 <path d="m26.026227 17.997773h21.947547l-21.947547 28.004454h21.947547" style="fill:none;stroke-linecap:round;stroke-linejoin:round;stroke-width:3.9955463;stroke:#ffffff"/>
 <path d="M 11.035156,4 C 9.3533704,4 8,5.2493244 8,6.8002055 L 8,7.8 C 8,6.2491189 9.3533704,4.9997945 11.035156,4.9997945 l 6.964844,0 13.96875,0 21.03125,0 c 1.662,0 3,1.2493243 3,2.8002055 L 56,6.8002055 C 56,5.2493245 54.662,4 53,4 L 31.96875,4 18,4 11.035156,4 Z" style="fill:#ffffff;opacity:.1"/>
</svg>
